!!!COM:	Du Fay, Guillaume
!!!CDT:	~1397/08/05/-1474/11/27
!!!OPR:	Missa Ave regina celorum
!!!ONM:	4
!!!OTL:	Sanctus
!!!AGN:	Mass; Sanctus
!!!SCT:	Duf1002d
!!!SCA:	Duf1002d
!!!voices:	4
!!!voices-OPR:	4
**kern	**text	**kern	**text	**kern	**text	**kern	**text
*staff4	*staff4	*staff3	*staff3	*staff2	*staff2	*staff1	*staff1
*Ivox	*	*Ivox	*	*Ivox	*	*Ivox	*
*I"Bassus	*	*I"Tenor	*	*I"Contratenor	*	*I"Cantus	*
*I'B	*	*I'T	*	*I'Ct	*	*I'Cn	*
*>[A,B,C,D,E]	*>[A,B,C,D,E]	*>[A,B,C,D,E]	*>[A,B,C,D,E]	*>[A,B,C,D,E]	*>[A,B,C,D,E]	*>[A,B,C,D,E]	*>[A,B,C,D,E]
*>A	*>A	*>A	*>A	*>A	*>A	*>A	*>A
*clefF4	*	*clefGv2	*	*clefGv2	*	*clefG2	*
*k[]	*	*k[b-]	*	*k[]	*	*k[]	*
*M3/1	*	*M3/1	*	*M3/1	*	*M3/1	*
*met(O)	*	*met(O)	*	*met(O)	*	*met(O)	*
=1-	=1-	=1-	=1-	=1-	=1-	=1-	=1-
!!section: Sanctus
!!!OMD: Sanctus
0F	A-	0.r	.	0f	San-	1.cc	San-
.	.	.	.	.	.	2b\	.
1F	.	.	.	1c	.	1a	.
=2	=2	=2	=2	=2	=2	=2	=2
1E-	.	0.r	.	1c	.	1g	.
1.D	.	.	.	2.d\	.	2f/	.
.	.	.	.	.	.	2.a/	.
.	.	.	.	4c\	.	.	.
.	.	.	.	[1A	.	.	.
.	.	.	.	.	.	4g/	.
2C/	.	.	.	.	.	2e/	.
=3	=3	=3	=3	=3	=3	=3	=3
1D	.	0.r	.	1A]	.	1f	.
1.E-	.	.	.	0G	-ctus,	1.g	.
2C/	.	.	.	.	.	2e/	.
=4	=4	=4	=4	=4	=4	=4	=4
0.C	-ve,	0c	A-	2r	.	1e	-ctus,
.	.	.	.	1g	san-	.	.
.	.	.	.	.	.	2r	.
.	.	.	.	2f\	.	2a/	san-
.	.	1c	.	1e	.	2g/	.
.	.	.	.	.	.	2e/	.
=5	=5	=5	=5	=5	=5	=5	=5
0D	a-	1B-	.	2d\	.	2f/	.
.	.	.	.	1f	.	2d/	.
.	.	1.A	.	.	.	2f/	.
.	.	.	.	2e\	.	2g/	.
2D\	.	.	.	1d	.	[1a	-ctus,
2Eni\	.	2G/	.	.	.	.	.
=6	=6	=6	=6	=6	=6	=6	=6
1F	.	1A	.	1c	-ctus,	1a]	.
0G	.	1.B-	.	2.g\	san-	1d	san-
.	.	.	.	4f\	.	.	.
.	.	.	.	1d	.	[1g	.
.	.	[2G/	.	.	.	.	.
=7	=7	=7	=7	=7	=7	=7	=7
1C	.	2G/]	.	1e	.	2g/]	.
.	.	2A/	.	.	.	2cc\	.
2E\	.	2G/	.	1c	.	2b\	.
2F\	.	1c	.	.	.	2a/	.
1D	.	.	.	1d 1f	.	4b/	.
.	.	.	.	.	.	4a/	.
.	.	2Bni\	.	.	.	4g/	.
.	.	.	.	.	.	4f/	.
=8	=8	=8	=8	=8	=8	=8	=8
[0.C	-ve,	0.c	-ve,	1G 1g	-ctus,	0e	-ctus,
.	.	.	.	1r	.	.	.
.	.	.	.	1g	do-	1r	.
=9	=9	=9	=9	=9	=9	=9	=9
0.C]	.	1r	.	1e	.	1g	do-
.	.	0c	re-	2f\	.	2a/	.
.	.	.	.	1e	.	2g/	.
.	.	.	.	.	.	1cc	.
.	.	.	.	[2g\	.	.	.
=10	=10	=10	=10	=10	=10	=10	=10
1.G	re-	0.d	-gi-	2g\]	.	1.b	.
.	.	.	.	2f\	.	.	.
.	.	.	.	0g	-mi-	.	.
2A\	.	.	.	.	.	2cc\	.
1B	.	.	.	.	.	1dd	-mi-
=11	=11	=11	=11	=11	=11	=11	=11
0c	-gi-	0.e	.	1g	-nus	2cc\	-nus
.	.	.	.	.	.	2b\	.
.	.	.	.	1e	.	1g	.
[1A	.	.	.	1c	.	2cc\	de-
.	.	.	.	.	.	2dd\	.
=12	=12	=12	=12	=12	=12	=12	=12
2A\]	.	0.e	-na	1r	.	1.ee	.
2G\	.	.	.	.	.	.	.
2A\	.	.	.	1a	de-	.	.
2B\	.	.	.	.	.	2dd\	.
1c	.	.	.	[1g	-us,	1cc	.
=13	=13	=13	=13	=13	=13	=13	=13
0G	-na	1d	ce-	0.g]	.	0.b	-us,
.	.	1.e	.	.	.	.	.
1G	ce-	.	.	.	.	.	.
.	.	2d\	.	.	.	.	.
=14	=14	=14	=14	=14	=14	=14	=14
1.F	-lo-	0.f	-lo-	0c	do-	0a	do-
2E\	.	.	.	.	.	.	.
1D	.	.	.	1d	.	1b	.
=15	=15	=15	=15	=15	=15	=15	=15
0.C	.	0.e	.	1e	.	1.cc	.
.	.	.	.	1c	.	.	.
.	.	.	.	.	.	2b\	.
.	.	.	.	[1g	-mi-	1cc	.
=16	=16	=16	=16	=16	=16	=16	=16
0.G	.	0.d	.	0.g]	.	2dd\	.
.	.	.	.	.	.	1b	.
.	.	.	.	.	.	2cc\	.
.	.	.	.	.	.	2.b\	-mi-
.	.	.	.	.	.	4a/	.
=17	=17	=17	=17	=17	=17	=17	=17
0.C	-rum.	[0.c	-rum.	1e	-nus	2cc\	-nus
.	.	.	.	.	.	2r	.
.	.	.	.	2e\	de-	2g/	de-
.	.	.	.	2f\	.	2cc\	.
.	.	.	.	1g	.	2dd\	.
.	.	.	.	.	.	[2ee\	.
=18	=18	=18	=18	=18	=18	=18	=18
0.r	.	0.c]	.	2c\	.	2ee\]	.
.	.	.	.	2g\	.	2dd\	.
.	.	.	.	2a\	.	2cc\	.
.	.	.	.	2g\	.	4b/	.
.	.	.	.	.	.	4a/	.
.	.	.	.	[1e	.	1g	-us,
=19	=19	=19	=19	=19	=19	=19	=19
1C	A-	0.r	.	2e\]	.	0.r	.
.	.	.	.	2c\	.	.	.
2BB/	.	.	.	2d\	.	.	.
1C	.	.	.	2e\	.	.	.
.	.	.	.	4f\	.	.	.
.	.	.	.	4.e\	.	.	.
2E\	.	.	.	.	.	.	.
.	.	.	.	8d\	.	.	.
.	.	.	.	4c\	.	.	.
=20	=20	=20	=20	=20	=20	=20	=20
1D	.	0.r	.	2.B\	.	0.r	.
.	.	.	.	4A/	.	.	.
0C	-ve,	.	.	2c\	-us,	.	.
.	.	.	.	2r	.	.	.
.	.	.	.	2G/	de-	.	.
.	.	.	.	[2c\	.	.	.
=21	=21	=21	=21	=21	=21	=21	=21
1F	a-	0.r	.	4c\]	.	0.r	.
.	.	.	.	4d\	.	.	.
.	.	.	.	4c\	.	.	.
.	.	.	.	4d\	.	.	.
2G\	.	.	.	2.e\	.	.	.
1A	.	.	.	.	.	.	.
.	.	.	.	4f\	.	.	.
.	.	.	.	4e\	.	.	.
.	.	.	.	4f\	.	.	.
2B\	.	.	.	[2g\	.	.	.
=22	=22	=22	=22	=22	=22	=22	=22
1c	.	0.r	.	2g\]	.	0cc	de-
.	.	.	.	2.a\	.	.	.
2F\	.	.	.	.	.	.	.
.	.	.	.	4f\	.	.	.
2A\	.	.	.	2.f\	.	.	.
1G	.	.	.	.	.	2b\	.
.	.	.	.	4e\	.	.	.
.	.	.	.	4e\	.	2g/	.
.	.	.	.	4d\	.	.	.
=23	=23	=23	=23	=23	=23	=23	=23
0F	-ve	0.c	A-	2f\	-us,-	2a/	.
.	.	.	.	2g\	.	2b\	.
.	.	.	.	0a	.	1cc	.
1A	.	.	.	.	.	1f	.
=24	=24	=24	=24	=24	=24	=24	=24
1G	.	1B-	.	2d\	-de-	1g	.
.	.	.	.	2e\	.	.	.
0F	.	0A	.	2.f\	.	0a	.
.	.	.	.	4e\	.	.	.
.	.	.	.	2c\	.	.	.
.	.	.	.	2f\	.	.	.
=25	=25	=25	=25	=25	=25	=25	=25
1G	.	1B-	.	4e\	.	1g	-us
.	.	.	.	2d\	.	.	.
.	.	.	.	4c\	.	.	.
0C	.	0G	.	1c	-us,	1e	.
.	.	.	.	2g\	sa-	2r	.
.	.	.	.	[2e\	.	[2cc\	sa-
=26	=26	=26	=26	=26	=26	=26	=26
2r	.	1.A	.	2e\]	.	4cc\]	.
.	.	.	.	.	.	4b\	.
1F	a-	.	.	2.c\	.	2cc\	.
.	.	.	.	.	.	2a/	.
.	.	.	.	4B\	.	.	.
2E\	.	2c\	.	2c\	.	2g/	.
1D	.	2Bni\	.	1d	-ba-	1f	-ba-
.	.	2A/	.	.	.	.	.
=27	=27	=27	=27	=27	=27	=27	=27
0.C	-ve,	0c	-ve,	1G	-oth,	0e	-oth,
.	.	.	.	1r	.	.	.
.	.	1c	do-	2G/	sa-	2e/	sa-
.	.	.	.	2A/	.	2f/	.
=28	=28	=28	=28	=28	=28	=28	=28
0.r	.	1d	-mi-	1B-	.	1g	.
.	.	1.e	.	2A/	.	1a	.
.	.	.	.	1c	.	.	.
.	.	.	.	.	.	[1g	.
.	.	2d\	.	[2G/	.	.	.
=29	=29	=29	=29	=29	=29	=29	=29
0.r	.	2e\	.	2G/]	.	2g/]	.
.	.	2.f\	.	1d	.	2.b-\	.
.	.	4e\	.	.	.	4a/	.
.	.	1e	.	2c\	.	2a/	.
.	.	.	.	1B-i	-ba-	2.g/	-ba-
.	.	2d\	.	.	.	.	.
.	.	.	.	.	.	4f/	.
=30	=30	=30	=30	=30	=30	=30	=30
0.c	do-	0.e	-na	0A	-oth,	1a	-oth,
.	.	.	.	.	.	1r	.
.	.	.	.	1r	.	[1ee	sa-
=31	=31	=31	=31	=31	=31	=31	=31
0A	-mi-	1r	.	0c	sa-	2ee\]	.
.	.	.	.	.	.	2dd\	.
.	.	0e	an-	.	.	2ee\	-ba-
.	.	.	.	.	.	2.cc\	.
1c	-na	.	.	1A	.	.	.
.	.	.	.	.	.	4b\	.
.	.	.	.	.	.	2a/	.
=32	=32	=32	=32	=32	=32	=32	=32
1B	an-	1d	-ge-	1d	.	2.g/	.
.	.	.	.	.	.	4f/	.
0A	-ge-	1e	.	0c	.	1a	-oth,
.	.	1f	.	.	.	2r	.
.	.	.	.	.	.	2cc\	sa-
=33	=33	=33	=33	=33	=33	=33	=33
1G	-lo-	2g\	-lo-	2d\	-ba-	2b\	.
.	.	1e	.	2B\	.	1g	.
2E\	.	.	.	2c\	.	.	.
2F\	.	2c\	.	1A	.	2.a/	.
1D	.	1d	.	.	.	.	.
.	.	.	.	.	.	4g/	.
.	.	.	.	2B\	.	2f/	.
=34	=34	=34	=34	=34	=34	=34	=34
1C	.	2.G/	.	1c	-oth,	2e/	.
.	.	.	.	.	.	1g	.
.	.	4A/	.	.	.	.	.
0G	.	2Bni\	.	1r	.	.	.
.	.	2c\	.	.	.	2a/	.
.	.	1d	.	1g	sa-	1b	.
=35	=35	=35	=35	=35	=35	=35	=35
1A	.	1c	.	1e	.	1.cc	-ba-
1F	.	0f	.	1.a	-ba-	.	.
.	.	.	.	.	.	2dd\	.
2A\	.	.	.	.	.	2cc\	.
2B\	.	.	.	2g\	.	2dd\	.
=36	=36	=36	=36	=36	=36	=36	=36
1c	.	1e	.	[0.gl	-oth.	2ee\	.
.	.	.	.	.	.	1cc	.
0G	.	0d	.	.	.	.	.
.	.	.	.	.	.	1b	.
.	.	.	.	.	.	2a/	.
=37	=37	=37	=37	=37	=37	=37	=37
0.Cl	-rum.	0.cl	-rum.	0.g]	.	0.ccl	-oth.
!!LO:LB:i:g=z
=38||	=38||	=38||	=38||	=38||	=38||	=38||	=38||
*>B	*>B	*>B	*>B	*>B	*>B	*>B	*>B
*clefF4	*	*clefGv2	*	*clefGv2	*	*clefG2	*
*k[]	*	*k[b-]	*	*k[]	*	*k[]	*
*M3/1	*	*M3/1	*	*M3/1	*	*M3/1	*
*met(O)	*	*met(O)	*	*met(O)	*	*met(O)	*
!!section: Pleni
!!!OMD: Pleni
0.r	.	0.r	.	1G	Ple-	1r	.
.	.	.	.	2A/	.	1r	.
.	.	.	.	1G	.	.	.
.	.	.	.	.	.	1g	Ple-
.	.	.	.	[2c\	.	.	.
=39	=39	=39	=39	=39	=39	=39	=39
0.r	.	0.r	.	2c\]	.	2a/	.
.	.	.	.	2B\	.	1g	.
.	.	.	.	2c\	.	.	.
.	.	.	.	2e\	.	1cc	.
.	.	.	.	1d	.	.	.
.	.	.	.	.	.	2b\	.
=40	=40	=40	=40	=40	=40	=40	=40
0.r	.	0.r	.	1c	-ni,	2cc\	.
.	.	.	.	.	.	2ee\	.
.	.	.	.	2r	.	1dd	.
.	.	.	.	2B\	ple-	.	.
.	.	.	.	2c\	.	1cc	-ni,
.	.	.	.	2A/	.	.	.
=41	=41	=41	=41	=41	=41	=41	=41
0.r	.	0.r	.	1G	.	2r	.
.	.	.	.	.	.	2b\	ple-
.	.	.	.	2A/	.	2cc\	.
.	.	.	.	2F/	.	2a/	.
.	.	.	.	2G/	.	1g	.
.	.	.	.	2B-i\	.	.	.
=42	=42	=42	=42	=42	=42	=42	=42
0.r	.	0.r	.	1A	-ni	2a/	.
.	.	.	.	.	.	2f/	.
.	.	.	.	2r	.	2g/	.
.	.	.	.	2G/	sunt	2b-i\	.
.	.	.	.	2A/	.	1a	-ni
.	.	.	.	2Bni\	.	.	.
=43	=43	=43	=43	=43	=43	=43	=43
0.r	.	0.r	.	1c	.	2r	.
.	.	.	.	.	.	2g/	sunt
.	.	.	.	2r	.	2a/	.
.	.	.	.	2d\	ce-	2bni\	.
.	.	.	.	2e\	.	1cc	.
.	.	.	.	2c\	.	.	.
=44	=44	=44	=44	=44	=44	=44	=44
0.r	.	0.r	.	2e\	.	2r	.
.	.	.	.	2f\	.	1dd	ce-
.	.	.	.	1g	.	.	.
.	.	.	.	.	.	2.ee\	.
.	.	.	.	1a	.	.	.
.	.	.	.	.	.	4dd\	.
.	.	.	.	.	.	4cc\	.
.	.	.	.	.	.	4b\	.
=45	=45	=45	=45	=45	=45	=45	=45
0.r	.	0.r	.	1f	.	2a/	.
.	.	.	.	.	.	2.dd\	.
.	.	.	.	2d\	.	.	.
.	.	.	.	.	.	4cc\	.
.	.	.	.	1g	.	2b\	.
.	.	.	.	.	.	2.a/	.
.	.	.	.	2f#i\	.	.	.
.	.	.	.	.	.	4g/	.
=46	=46	=46	=46	=46	=46	=46	=46
0.r	.	0.r	.	1g	-li	0g	-li
.	.	.	.	0G	.	.	.
.	.	.	.	.	.	1r	.
=47	=47	=47	=47	=47	=47	=47	=47
0.r	.	0.r	.	0.r	.	1c	et
.	.	.	.	.	.	2d/	.
.	.	.	.	.	.	1e	.
.	.	.	.	.	.	2f/	.
=48	=48	=48	=48	=48	=48	=48	=48
0.r	.	0.r	.	1c	et	2.g/	ter-
.	.	.	.	.	.	4e/	.
.	.	.	.	2d\	.	2f/	.
.	.	.	.	1e	.	2g/	.
.	.	.	.	.	.	1a	.
.	.	.	.	2f\	.	.	.
=49	=49	=49	=49	=49	=49	=49	=49
0.r	.	0.r	.	2.g\	ter-	2g/	-ra,
.	.	.	.	.	.	2r	.
.	.	.	.	4e\	.	.	.
.	.	.	.	2f\	.	2.d/	ter-
.	.	.	.	2g\	.	.	.
.	.	.	.	.	.	4e/	.
.	.	.	.	1a	.	2.f/	.
.	.	.	.	.	.	4e/	.
=50	=50	=50	=50	=50	=50	=50	=50
0.r	.	0.r	.	2g\	-ra,	2c/	.
.	.	.	.	2r	.	2e/	.
.	.	.	.	2.d\	ter-	2f/	.
.	.	.	.	.	.	2g/	.
.	.	.	.	4e\	.	.	.
.	.	.	.	2.f\	.	2.a/	.
.	.	.	.	4e\	.	4g/	.
=51	=51	=51	=51	=51	=51	=51	=51
0.r	.	0.r	.	2c\	.	2cc\	.
.	.	.	.	2B\	.	2dd\	.
.	.	.	.	2c\	.	2ee\	.
.	.	.	.	2e\	.	1cc	.
.	.	.	.	1d	.	.	.
.	.	.	.	.	.	2b\	.
=52	=52	=52	=52	=52	=52	=52	=52
0C	Sal-	0.r	.	0.c	-ra	0.cc	-ra
2F\	.	.	.	.	.	.	.
2G\	.	.	.	.	.	.	.
=53	=53	=53	=53	=53	=53	=53	=53
1A	.	1c	Sal-	0.r	.	0.r	.
1G	.	2d\	.	.	.	.	.
.	.	1e	.	.	.	.	.
2c\	.	.	.	.	.	.	.
2B\	.	2d\	.	.	.	.	.
=54	=54	=54	=54	=54	=54	=54	=54
2G\	.	2e\	.	0.r	.	0.r	.
1A	.	2.f\	.	.	.	.	.
.	.	4e\	.	.	.	.	.
2G\	.	2e\	.	.	.	.	.
1F	.	2.d\	.	.	.	.	.
.	.	4c\	.	.	.	.	.
=55	=55	=55	=55	=55	=55	=55	=55
0E	-ve,	1e	-ve,	0.r	.	0.r	.
.	.	2r	.	.	.	.	.
.	.	1g	ra-	.	.	.	.
[1C	ra-	.	.	.	.	.	.
.	.	2f\	.	.	.	.	.
=56	=56	=56	=56	=56	=56	=56	=56
1C]	.	2.e\	.	0.r	.	0.r	.
.	.	4c\	.	.	.	.	.
1BB	-dix	1d	-dix	.	.	.	.
1C	san-	2e\	san-	.	.	.	.
.	.	[2c\	.	.	.	.	.
=57	=57	=57	=57	=57	=57	=57	=57
2AA/	.	2c\]	.	0.r	.	0.r	.
2BB/	.	2.d\	.	.	.	.	.
2C/	.	.	.	.	.	.	.
.	.	4c\	.	.	.	.	.
2E\	.	1c	.	.	.	.	.
1D	.	.	.	.	.	.	.
.	.	2Bni\	.	.	.	.	.
=58	=58	=58	=58	=58	=58	=58	=58
0C	-cta,	1c	-cta,	0.r	.	2.e/	glo-
.	.	.	.	.	.	4f/	.
.	.	1r	.	.	.	2g/	.
.	.	.	.	.	.	2a/	.
1C	ex	1c	ex	.	.	2g/	.
.	.	.	.	.	.	[2cc\	.
=59	=59	=59	=59	=59	=59	=59	=59
1F	qua	1A	qua	0.r	.	4cc\]	.
.	.	.	.	.	.	4a\	.
.	.	.	.	.	.	2cc\	.
1G	mun-	2G/	mun-	.	.	2b\	.
.	.	2B-\	.	.	.	1g	.
1D	-do	1A	.	.	.	.	.
.	.	.	.	.	.	2f#i/	-ri-
=60	=60	=60	=60	=60	=60	=60	=60
0.r	.	0G	-do,	1d	glo-	1g	-a,
.	.	.	.	2e\	.	1r	.
.	.	.	.	1d	.	.	.
.	.	1G	mun-	.	.	1b	glo-
.	.	.	.	2g\	.	.	.
=61	=61	=61	=61	=61	=61	=61	=61
0.r	.	1A	.	2.f\	-ri-	2a/	.
.	.	.	.	.	.	2cc\	.
.	.	.	.	4e\	.	.	.
.	.	2G/	.	0g	-a	2dd\	.
.	.	1c	.	.	.	2.ee\	.
.	.	.	.	.	.	4cc\	.
.	.	2Bni\	.	.	.	2dd\	.
=62	=62	=62	=62	=62	=62	=62	=62
0.r	.	2.c\	.	0.r	.	2ee\	-ri-
.	.	.	.	.	.	1cc	.
.	.	4d\	.	.	.	.	.
.	.	2e\	.	.	.	.	.
.	.	2f\	.	.	.	2a/	.
.	.	1d	.	.	.	4b/	.
.	.	.	.	.	.	4a/	.
.	.	.	.	.	.	4g/	.
.	.	.	.	.	.	4f/	.
=63	=63	=63	=63	=63	=63	=63	=63
0.r	.	0c	-do	1g	tu-	2.e/	.
.	.	.	.	.	.	4f/	.
.	.	.	.	2e\	.	1g	-a
.	.	.	.	2c\	.	.	.
.	.	1r	.	2e\	.	1c	.
.	.	.	.	2f\	.	.	.
=64	=64	=64	=64	=64	=64	=64	=64
0C	lux	0c	lux	[0.g	-a,	2r	.
.	.	.	.	.	.	2.cc\	tu-
.	.	.	.	.	.	4dd\	.
.	.	.	.	.	.	2ee\	.
2.G\	ext	1d	est	.	.	2dd\	.
.	.	.	.	.	.	[2b\	.
4F\	.	.	.	.	.	.	.
=65	=65	=65	=65	=65	=65	=65	=65
1E	.	1e	.	1g]	.	2b\]	.
.	.	.	.	.	.	2cc\	.
0D	.	0f	.	1a	tu-	2dd\	.
.	.	.	.	.	.	2cc\	.
.	.	.	.	1d	.	2a/	.
.	.	.	.	.	.	4b/	.
.	.	.	.	.	.	[4a/	.
=66	=66	=66	=66	=66	=66	=66	=66
1C	or-	1e	or-	2e\	.	4a/]	.
.	.	.	.	.	.	4g/	.
.	.	.	.	2.g\	.	2cc\	.
0G	.	1d	.	.	.	2b\	.
.	.	.	.	4f\	.	.	.
.	.	.	.	2g\	.	1dd	.
.	.	2.g\	.	2d\	-a,	.	.
.	.	.	.	2g\	.	2ee\	.
.	.	4e\	.	.	.	.	.
=67	=67	=67	=67	=67	=67	=67	=67
2A\	.	2f\	.	1r	.	4dd\	.
.	.	.	.	.	.	4cc\	.
2G\	.	2g\	.	.	.	4b\	.
.	.	.	.	.	.	4a\	.
1c	.	2c\	.	0g	tu-	2g/	.
.	.	2e\	.	.	.	1cc	.
1G	.	1d	.	.	.	.	.
.	.	.	.	.	.	2b\	.
=68	=68	=68	=68	=68	=68	=68	=68
2A\	.	2c\	.	2e\	.	1cc	-a,
1F	.	2.f\	.	2.a\	.	.	.
.	.	.	.	.	.	1a	tu-
.	.	4e\	.	4g\	.	.	.
2A\	.	2c\	.	4e\	.	.	.
.	.	.	.	4f\	.	.	.
1G	.	1d	.	2g\	.	1b	.
.	.	.	.	2d\	.	.	.
=69	=69	=69	=69	=69	=69	=69	=69
0.Cl	-ta.	0.cl	-ta.	2e\	.	0.ccl	-a.
.	.	.	.	2f\	.	.	.
.	.	.	.	0gl	-a.	.	.
!!LO:LB:i:g=z
=70||	=70||	=70||	=70||	=70||	=70||	=70||	=70||
*>C	*>C	*>C	*>C	*>C	*>C	*>C	*>C
*clefF4	*	*clefGv2	*	*clefGv2	*	*clefG2	*
*k[]	*	*k[b-]	*	*k[]	*	*k[]	*
*M3/1	*	*M3/1	*	*M3/1	*	*M3/1	*
*met(O)	*	*met(O)	*	*met(O)	*	*met(O)	*
!!section: Osanna I
!!!OMD: Osanna I
0c	Gau-	1c	Gau-	0g	O-	0cc	O-
.	.	2e\	-de,	.	.	.	.
.	.	2f\	.	.	.	.	.
1c	-de,	1g	.	1e	.	1cc	-san-
=71	=71	=71	=71	=71	=71	=71	=71
1F	glo-	2.f\	glo-	1c	-san-	1a	.
.	.	4e\	.	.	.	.	.
2G\	-ri-	2d\	-ri-	2g\	.	2b\	.
2A\	.	2c\	.	2e\	.	2cc\	.
1F	-o-	1d	-o-	1f	.	2a/	.
.	.	.	.	.	.	4g/	.
.	.	.	.	.	.	4f/	.
=72	=72	=72	=72	=72	=72	=72	=72
1C	-sa,	1c	-sa,	1g	.	2e/	.
.	.	.	.	.	.	2g/	.
0F	su-	1c	su-	1a	.	2.f/	-na,
.	.	.	.	.	.	8e/L	.
.	.	.	.	.	.	8d/J	.
.	.	1A	.	2f\	.	1c	.
.	.	.	.	2e\	.	.	.
=73	=73	=73	=73	=73	=73	=73	=73
1.G	.	2.B-\	.	1d	.	0.r	.
.	.	4c\	.	.	.	.	.
.	.	2d\	.	2B\	.	.	.
2E\	.	2G/	.	1c	.	.	.
1F	.	1A	.	.	.	.	.
.	.	.	.	2d\	.	.	.
=74	=74	=74	=74	=74	=74	=74	=74
1G	-per	0.G	-per	2.B\	.	0g	o-
.	.	.	.	4A/	.	.	.
0C	.	.	.	1c	-na,	.	.
.	.	.	.	2r	.	2e/	.
.	.	.	.	2c\	o-	2f/	.
=75	=75	=75	=75	=75	=75	=75	=75
1E	om-	0.r	.	2G/	-san-	1g	-san-
.	.	.	.	1c	.	.	.
2F\	.	.	.	.	.	2a/	.
1G	.	.	.	2B\	.	2g/	.
.	.	.	.	1e	.	2b\	.
2A\	.	.	.	.	.	2cc\	.
=76	=76	=76	=76	=76	=76	=76	=76
1B	.	1G	om-	1d	.	2.dd\	.
.	.	.	.	.	.	8cc\L	.
.	.	.	.	.	.	8b\J	.
1c	-nes,	1A	.	2c\	.	1a	.
.	.	.	.	2e\	.	.	.
1r	.	2Bni\	.	2d\	.	1g	-na,
.	.	[2c\	.	[2e\	.	.	.
=77	=77	=77	=77	=77	=77	=77	=77
0C	om-	2c\]	.	1e]	.	2e/	o-
.	.	2c\	.	.	.	2.g/	-san-
.	.	2G/	.	1c	-na,	.	.
.	.	.	.	.	.	4f/	.
.	.	2c\	.	.	.	2e/	.
1BB	.	2d\	.	1r	.	2.d/	.
.	.	2f\	.	.	.	.	.
.	.	.	.	.	.	4c/	.
=78	=78	=78	=78	=78	=78	=78	=78
1C	.	2e\	.	0.r	.	0c	.
.	.	2.g\	.	.	.	.	.
2.E\	.	.	.	.	.	.	.
.	.	4f\	.	.	.	.	.
.	.	2e\	.	.	.	.	.
4F\	.	.	.	.	.	.	.
1G	.	1d	.	.	.	1B	.
=79	=79	=79	=79	=79	=79	=79	=79
0.C	-nes	0.c	-nes	1g	o-	1c	-na
.	.	.	.	2e\	-san-	1r	.
.	.	.	.	2f\	.	.	.
.	.	.	.	1g	-na	1r	.
=80	=80	=80	=80	=80	=80	=80	=80
0.r	.	0.r	.	2.G/	in	1r	.
.	.	.	.	4A/	.	.	.
.	.	.	.	2B\	.	2.g/	in
.	.	.	.	2c\	ex-	.	.
.	.	.	.	.	.	4a/	.
.	.	.	.	2d\	-cel-	2b\	.
.	.	.	.	4c\	.	2cc\	ex-
.	.	.	.	4A\	.	.	.
=81	=81	=81	=81	=81	=81	=81	=81
0.r	.	0.r	.	4B/	.	2dd\	-cel-
.	.	.	.	8A/L	.	.	.
.	.	.	.	8B/J	.	.	.
.	.	.	.	2c\	.	4cc\	.
.	.	.	.	.	.	4a\	.
.	.	.	.	2G/	.	4b/	.
.	.	.	.	.	.	8a/L	.
.	.	.	.	.	.	8b/J	.
.	.	.	.	2A/	.	2cc\	.
.	.	.	.	2B\	.	2g/	.
.	.	.	.	2c\	.	[2a/	.
=82	=82	=82	=82	=82	=82	=82	=82
0.r	.	0.r	.	2g\	.	4a/]	.
.	.	.	.	.	.	4b/	.
.	.	.	.	2e\	.	2.cc\	.
.	.	.	.	2f\	.	.	.
.	.	.	.	.	.	4dd\	.
.	.	.	.	1g	.	2b\	.
.	.	.	.	.	.	2.ee\	.
.	.	.	.	2c\	.	.	.
.	.	.	.	.	.	4dd\	.
=83	=83	=83	=83	=83	=83	=83	=83
0.r	.	0.r	.	2e\	.	4b\	.
.	.	.	.	.	.	4cc\	.
.	.	.	.	2f\	.	2.dd\	.
.	.	.	.	2d\	.	.	.
.	.	.	.	.	.	4cc\	.
.	.	.	.	1g	.	2b\	.
.	.	.	.	.	.	1a	-sis,
.	.	.	.	2f#i\	.	.	.
=84	=84	=84	=84	=84	=84	=84	=84
0.r	.	0.r	.	2g\	-sis,	2.g/	ex-
.	.	.	.	1G	ex-	.	.
.	.	.	.	.	.	4f/	.
.	.	.	.	.	.	4e/	.
.	.	.	.	.	.	4d/	.
.	.	.	.	2B-\	.	1g	-cel-
.	.	.	.	1A	-cel-	.	.
.	.	.	.	.	.	2f#i/	.
=85	=85	=85	=85	=85	=85	=85	=85
0.r	.	0.r	.	0.G	-sis,	1g	-sis,
.	.	.	.	.	.	1r	.
.	.	.	.	.	.	1r	.
=86	=86	=86	=86	=86	=86	=86	=86
1C	spe-	1r	.	0.r	.	1cc	in
2.G\	.	1r	.	.	.	1dd	ex-
4F\	.	.	.	.	.	.	.
1E	.	1c	spe-	.	.	1ee	.
=87	=87	=87	=87	=87	=87	=87	=87
1D	-ci-	1d	-ci-	0.r	.	1ff	-cel-
1C	.	1e	.	.	.	2.ee\	.
.	.	.	.	.	.	4cc\	.
2r	.	1f	-o-	.	.	1dd	.
2BB/	-o	.	.	.	.	.	.
=88	=88	=88	=88	=88	=88	=88	=88
2C/	.	2.e\	.	0.r	.	2ee\	.
2AA/	.	.	.	.	.	2cc\	.
.	.	4c\	.	.	.	.	.
2BB/	.	2f\	.	.	.	2dd\	.
2C/	.	2e\	.	.	.	1cc	.
1G	.	1d	.	.	.	.	.
.	.	.	.	.	.	2b\	.
=89	=89	=89	=89	=89	=89	=89	=89
0.C	sa,	0.c	-sa,	1.g	in	0cc	.
.	.	.	.	1.e	ex-	.	.
.	.	.	.	.	.	[1g	.
=90	=90	=90	=90	=90	=90	=90	=90
1r	.	0.r	.	1c	-cel-	2g/]	.
.	.	.	.	.	.	2e/	.
1r	.	.	.	1d	.	2.f/	.
.	.	.	.	.	.	4e/	.
1C	spe-	.	.	1e	.	1g	-sis,
=91	=91	=91	=91	=91	=91	=91	=91
1D	-ci-	0.r	.	1f	.	0.r	.
1E	.	.	.	2.e\	.	.	.
.	.	.	.	4c\	.	.	.
1F	-o-	.	.	1d	.	.	.
=92	=92	=92	=92	=92	=92	=92	=92
2.E\	.	0.r	.	2e\	.	0.r	.
.	.	.	.	2c\	.	.	.
4C/	.	.	.	.	.	.	.
2F\	.	.	.	2d\	.	.	.
2E\	.	.	.	1c	.	.	.
1D	.	.	.	.	.	.	.
.	.	.	.	2B\	.	.	.
=93	=93	=93	=93	=93	=93	=93	=93
[0.C	-sa,	0.r	.	1c	-sis,	0.r	.
.	.	.	.	1r	.	.	.
.	.	.	.	2e\	in	.	.
.	.	.	.	2f\	.	.	.
=94	=94	=94	=94	=94	=94	=94	=94
0C]	.	1r	.	2g\	.	1e	in
.	.	.	.	1a	.	.	.
.	.	0c	spe-	.	.	2f/	.
.	.	.	.	2g\	.	1g	.
1c	spe-	.	.	2e\	.	.	.
.	.	.	.	2f\	.	2a/	ex-
=95	=95	=95	=95	=95	=95	=95	=95
1c	-ci-	1e	-ci-	1g	ex-	2g/	-cel-
.	.	.	.	.	.	2cc\	.
0G	-o-	0d	-o-	0g	-cel-	2dd\	.
.	.	.	.	.	.	2.b\	.
.	.	.	.	.	.	4cc\	.
.	.	.	.	.	.	4b\	.
.	.	.	.	.	.	4a\	.
=96	=96	=96	=96	=96	=96	=96	=96
0.Cl	-sa.	0.cl	-sa.	0.gl	-sis.	0.ccl	-sis.
!!LO:LB:i:g=z
=97||	=97||	=97||	=97||	=97||	=97||	=97||	=97||
*>D	*>D	*>D	*>D	*>D	*>D	*>D	*>D
*clefF4	*	*clefGv2	*	*clefGv2	*	*clefG2	*
*k[]	*	*k[b-]	*	*k[]	*	*k[]	*
*M3/1	*	*M3/1	*	*M2/1	*	*M2/1	*
*met(C)	*	*met(C)	*	*met(C)	*	*met(C)	*
!!section: Benedictus
!!!OMD: Benedictus
0r	.	0r	.	[0g	Be-	[0g	Be-
=98	=98	=98	=98	=98.	=98	=98.	=98
0r	.	0r	.	0g_	.	0g]	.
=99	=99	=99	=99	=99	=99	=99	=99
0r	.	0r	.	0g_	.	1b	.
.	.	.	.	.	.	1cc	.
=100	=100	=100	=100	=100.	=100	=100.	=100
0r	.	0r	.	0g]	.	0dd	-ne-
=101	=101	=101	=101	=101	=101	=101	=101
0r	.	0r	.	0c	-ne-	0ee	-dic-
=102	=102	=102	=102	=102.	=102	=102.	=102
0r	.	0r	.	1e	-dic-	1cc	.
.	.	.	.	1f	.	[1dd	.
=103	=103	=103	=103	=103	=103	=103	=103
0r	.	0r	.	0g	.	2dd\]	.
.	.	.	.	.	.	2cc\	.
.	.	.	.	.	.	1b	.
=104	=104	=104	=104	=104.	=104	=104.	=104
0r	.	0r	.	1a	.	0a	.
.	.	.	.	1f	.	.	.
=105	=105	=105	=105	=105	=105	=105	=105
0r	.	0r	.	2e\	.	1g	-tus,
.	.	.	.	1g	.	.	.
.	.	.	.	.	.	1b	be-
.	.	.	.	2f\	.	.	.
=106	=106	=106	=106	=106.	=106	=106.	=106
0r	.	0r	.	1d	.	1a	-ne-
.	.	.	.	1f	.	[1dd	-dic-
=107	=107	=107	=107	=107	=107	=107	=107
0r	.	0r	.	0e	.	1dd]	.
.	.	.	.	.	.	1cc#i	.
=108	=108	=108	=108	=108.	=108	=108.	=108
0r	.	0r	.	[0d	-tus,	1.dd	.
.	.	.	.	.	.	2cc\	.
=109	=109	=109	=109	=109	=109	=109	=109
0r	.	0r	.	0d]	.	2b\	.
.	.	.	.	.	.	2a/	.
.	.	.	.	.	.	[1a	.
=110	=110	=110	=110	=110.	=110	=110.	=110
0r	.	0r	.	0c	be-	2a/]	.
.	.	.	.	.	.	2g/	.
.	.	.	.	.	.	1a	.
=111	=111	=111	=111	=111	=111	=111	=111
0r	.	0r	.	1d	.	2b\	.
.	.	.	.	.	.	2a/	.
.	.	.	.	1B	-ne-	2g/	.
.	.	.	.	.	.	2f/	.
=112	=112	=112	=112	=112.	=112	=112.	=112
0r	.	0r	.	1c	-dic-	1e	.
.	.	.	.	1d	.	[1d	.
=113	=113	=113	=113	=113	=113	=113	=113
0r	.	0r	.	1G	.	1d]	.
.	.	.	.	1B	.	[1g	.
=114	=114	=114	=114	=114.	=114	=114.	=114
0r	.	0r	.	0A	.	2g/]	.
.	.	.	.	.	.	2f#i/	.
.	.	.	.	.	.	2f#i/	.
.	.	.	.	.	.	2e/	.
=115	=115	=115	=115	=115	=115	=115	=115
0r	.	0r	.	[0G	-tus	0g	-tus
=116	=116	=116	=116	=116.	=116	=116.	=116
0r	.	0r	.	0G]	.	0r	.
=117	=117	=117	=117	=117	=117	=117	=117
0r	.	0r	.	0r	.	1g	qui
.	.	.	.	.	.	1a	.
=118	=118	=118	=118	=118.	=118	=118.	=118
0r	.	0r	.	1g	qui	2g/	ve-
.	.	.	.	.	.	1e	.
.	.	.	.	1a	.	.	.
.	.	.	.	.	.	2f/	.
=119	=119	=119	=119	=119	=119	=119	=119
0r	.	0r	.	2g\	ve-	1g	.
.	.	.	.	1e	.	.	.
.	.	.	.	.	.	2c/	.
.	.	.	.	2f\	.	2d/	.
=120	=120	=120	=120	=120.	=120	=120.	=120
0r	.	0r	.	1g	.	2e/	.
.	.	.	.	.	.	1c	.
.	.	.	.	2c\	.	.	.
.	.	.	.	2d\	.	2B/	.
=121	=121	=121	=121	=121	=121	=121	=121
0r	.	0r	.	2e\	.	2c/	.
.	.	.	.	1c	.	2e/	.
.	.	.	.	.	.	1d	.
.	.	.	.	2B\	.	.	.
=122	=122	=122	=122	=122.	=122	=122.	=122
0r	.	0r	.	2c\	.	1c	-nit,
.	.	.	.	2e\	.	.	.
.	.	.	.	1d	.	1r	.
=123	=123	=123	=123	=123	=123	=123	=123
0r	.	0r	.	1c	-nit,	1.cc	qui
.	.	.	.	1r	.	.	.
.	.	.	.	.	.	2b\	.
=124	=124	=124	=124	=124.	=124	=124.	=124
0r	.	0r	.	1.c	qui	2a/	.
.	.	.	.	.	.	2g/	.
.	.	.	.	.	.	1g	.
.	.	.	.	2B\	.	.	.
=125	=125	=125	=125	=125	=125	=125	=125
0r	.	0r	.	2.A/	.	2.f/	ve-
.	.	.	.	4G/	.	4e/	.
.	.	.	.	1G	.	1g	.
=126	=126	=126	=126	=126.	=126	=126.	=126
0r	.	0r	.	2.F/	ve-	1a	.
.	.	.	.	4E/	.	.	.
.	.	.	.	1G	.	1b	.
=127	=127	=127	=127	=127	=127	=127	=127
0r	.	0r	.	1A	.	1cc	.
.	.	.	.	1B	.	2b\	.
.	.	.	.	.	.	2g/	.
=128	=128	=128	=128	=128.	=128	=128.	=128
0r	.	0r	.	1c	.	1a	.
.	.	.	.	2B\	.	2g/	.
.	.	.	.	2G/	.	[2g/	.
=129	=129	=129	=129	=129	=129	=129	=129
0r	.	0r	.	1A	.	2g/]	.
.	.	.	.	.	.	2f#i/	.
.	.	.	.	2G/	-nit	1g	-nit
.	.	.	.	2r	.	.	.
=130	=130	=130	=130	=130.	=130	=130.	=130
0r	.	0r	.	1c	in	2r	.
.	.	.	.	.	.	1g	in
.	.	.	.	2B\	.	.	.
.	.	.	.	[2c\	no-	2a/	.
=131	=131	=131	=131	=131	=131	=131	=131
0r	.	0r	.	2c\]	.	2g/	no-
.	.	.	.	2e\	.	2cc\	.
.	.	.	.	1d	.	2dd\	.
.	.	.	.	.	.	[2b\	.
=132	=132	=132	=132	=132.	=132	=132.	=132
0r	.	0r	.	1g	.	2b\]	.
.	.	.	.	.	.	2ee\	.
.	.	.	.	2a\	.	2ff\	.
.	.	.	.	2f\	.	2dd\	.
=133	=133	=133	=133	=133	=133	=133	=133
0r	.	0r	.	2g\	.	2ee\	.
.	.	.	.	2e\	.	2cc\	.
.	.	.	.	2f\	.	2dd\	.
.	.	.	.	[2g\	.	2b\	.
=134	=134	=134	=134	=134.	=134	=134.	=134
0r	.	0r	.	2g\]	.	2g/	.
.	.	.	.	2c\	.	1cc	-mi-
.	.	.	.	1d	-mi-	.	.
.	.	.	.	.	.	2b\	.
=135	=135	=135	=135	=135	=135	=135	=135
0r	.	0r	.	[0c	-ne	0cc	-ne
=136	=136	=136	=136	=136.	=136	=136.	=136
0r	.	0r	.	0c]	.	0r	.
=137	=137	=137	=137	=137	=137	=137	=137
*	*	*	*	*M3/3%2	*	*M3/3%2	*
*	*	*	*	*met(3)	*	*met(3)	*
0r	.	0r	.	3%2r	.	1cc	do-
.	.	.	.	3%2r	.	.	.
.	.	.	.	.	.	3dd\	.
.	.	.	.	3%2c	do-	3%2ee	.
=138	=138	=138	=138	=138.	=138	=138.	=138
0r	.	0r	.	3%2d	.	3%2ff	.
.	.	.	.	3%2c	.	3%2ee	.
.	.	.	.	[3%2f	.	3%2cc	.
=139	=139	=139	=139	=139	=139	=139	=139
0r	.	0r	.	3%2f]	.	3%2dd	.
.	.	.	.	3%2e	.	3%2cc	.
.	.	.	.	3%2c	.	3%2a	-mi-
=140	=140	=140	=140	=140.	=140	=140.	=140
0r	.	0r	.	3%2d	.	3%2b	-ni,
.	.	.	.	3%2c	.	3%2cc	.
.	.	.	.	3%2A	-mi-	3%2r	.
=141	=141	=141	=141	=141	=141	=141	=141
0r	.	0r	.	3%2B	-ni,	3%2dd	do-
.	.	.	.	3%2c	.	3%2cc	.
.	.	.	.	3%2r	.	3%2ee	.
=142	=142	=142	=142	=142.	=142	=142.	=142
0r	.	0r	.	3%2d	do-	3%2ff	.
.	.	.	.	3%2c	.	1ee	.
.	.	.	.	3%2e	.	.	.
.	.	.	.	.	.	3cc\	.
=143	=143	=143	=143	=143	=143	=143	=143
0r	.	0r	.	3%2f	.	3%2dd	.
.	.	.	.	3%2e	.	3%4ee	.
.	.	.	.	3%2c	.	.	.
=144	=144	=144	=144	=144.	=144	=144.	=144
0r	.	0r	.	3%2d	.	3%2dd	.
.	.	.	.	3%4e	.	3%2b	.
.	.	.	.	.	.	3%2cc	.
=145	=145	=145	=145	=145	=145	=145	=145
0r	.	0r	.	3%2d	.	3%4dd	.
.	.	.	.	3%2B	.	.	.
.	.	.	.	3%2c	.	3%2cc	.
=146	=146	=146	=146	=146.	=146	=146.	=146
0r	.	0r	.	3%4d	.	3%2b	.
.	.	.	.	.	.	1a	.
.	.	.	.	3%2c	.	.	.
.	.	.	.	.	.	3g/	.
=147	=147	=147	=147	=147	=147	=147	=147
0r	.	0r	.	3%2B	.	3%4g	.
.	.	.	.	3%4A	.	.	.
.	.	.	.	.	.	3%2f#i	-mi-
=148	=148	=148	=148	=148.	=148	=148.	=148
0r	.	0r	.	3%2G	.	3%2g	-ni,
.	.	.	.	3%4c	-mi-	3a/	.
.	.	.	.	.	.	3g/	.
.	.	.	.	.	.	3f/	.
.	.	.	.	.	.	3e/	.
=149	=149	=149	=149	=149	=149	=149	=149
0r	.	0r	.	3%2B	-ni,	3%2d	.
.	.	.	.	3%4G	.	3%2r	.
.	.	.	.	.	.	3%2e	do-
=150	=150	=150	=150	=150.	=150	=150.	=150
0r	.	0r	.	3%2A	do-	3%2f	.
.	.	.	.	3%2G	.	3%4g	.
.	.	.	.	3%2B	.	.	.
=151	=151	=151	=151	=151	=151	=151	=151
0r	.	0r	.	3%2c	.	3%4a	.
.	.	.	.	3%4d	.	.	.
.	.	.	.	.	.	[3%2b	.
=152	=152	=152	=152	=152.	=152	=152.	=152
0r	.	0r	.	3%2e	.	3%2b]	.
.	.	.	.	3%2c	.	3cc\	.
.	.	.	.	.	.	3b\	.
.	.	.	.	3%2d	.	3a/	.
.	.	.	.	.	.	3g/	.
=153	=153	=153	=153	=153	=153	=153	=153
0r	.	0r	.	3%2B	.	3%4g	.
.	.	.	.	1c	.	.	.
.	.	.	.	.	.	[3%2e	.
.	.	.	.	3B\	.	.	.
=154	=154	=154	=154	=154.	=154	=154.	=154
0r	.	0r	.	3%2G	.	3%2e]	.
.	.	.	.	3%4A	-mi-	3%4f#i	-mi-
=155	=155	=155	=155	=155	=155	=155	=155
0r	.	0r	.	0Gl	-ni.	0gl	-ni.
!!LO:LB:i:g=z
=156||	=156||	=156||	=156||	=156||	=156||	=156||	=156||
*>E	*>E	*>E	*>E	*>E	*>E	*>E	*>E
*clefF4	*	*clefGv2	*	*clefGv2	*	*clefG2	*
*k[]	*	*k[b-]	*	*k[]	*	*k[]	*
*M2/1	*	*M2/1	*	*M2/1	*	*M2/1	*
*met(C)	*	*met(C)	*	*met(C)	*	*met(C)	*
!!section: Osanna II
!!!OMD: Osanna II
0C	Va-	0c	Va-	[0g	O-	0cc	O-
=157.	=157	=157.	=157	=157.	=157	=157.	=157
0G	.	1d	.	0g]	.	0b	.
.	.	[1e	.	.	.	.	.
=158	=158	=158	=158	=158	=158	=158	=158
0A	.	1e]	.	0c	-san-	0cc	-san-
.	.	2f\	.	.	.	.	.
.	.	2e\	.	.	.	.	.
=159.	=159	=159.	=159	=159.	=159	=159.	=159
0B	.	2.d\	.	0G	-na,	0dd	.
.	.	4c\	.	.	.	.	.
.	.	1d	.	.	.	.	.
=160	=160	=160	=160	=160	=160	=160	=160
0c	-le,	0e	-le,	1r	.	1g	.
.	.	.	.	[1g	o-	1cc	.
=161.	=161	=161.	=161	=161.	=161	=161.	=161
0G	val-	[0g	val-	2g\]	.	1b	.
.	.	.	.	2f\	.	.	.
.	.	.	.	1d	.	1dd	.
=162	=162	=162	=162	=162	=162	=162	=162
0c	.	0g]	.	1c	-san-	1ee	.
.	.	.	.	1e	.	1cc	.
=163.	=163	=163.	=163	=163.	=163	=163.	=163
0d	.	0f	.	1f	.	2b\	.
.	.	.	.	.	.	1b	.
.	.	.	.	1d	.	.	.
.	.	.	.	.	.	2a/	.
=164	=164	=164	=164	=164	=164	=164	=164
1c	-de	0e	-de	1e	-na,	0cc	-na,
1A	.	.	.	1c	.	.	.
=165.	=165	=165.	=165	=165.	=165	=165.	=165
0B	.	0d	.	0G	.	1.dd	o-
.	.	.	.	.	.	2cc\	.
=166	=166	=166	=166	=166	=166	=166	=166
0c	.	1c	de-	1r	.	2a/	.
.	.	.	.	.	.	2g/	.
.	.	1e	.	1c	o-	1g	.
=167.	=167	=167.	=167	=167.	=167	=167.	=167
0G	de-	0d	.	0B	-san-	1r	.
.	.	.	.	.	.	1g	-san-
=168	=168	=168	=168	=168	=168	=168	=168
0C	.	0c	.	1G	.	1e	.
.	.	.	.	2A/	.	2f/	.
.	.	.	.	2G/	.	[2g/	.
=169.	=169	=169.	=169	=169.	=169	=169.	=169
0BB	-co-	0d	-co-	1.B	.	2g/]	.
.	.	.	.	.	.	2f/	.
.	.	.	.	.	.	1d	.
.	.	.	.	2G/	.	.	.
=170	=170	=170	=170	=170	=170	=170	=170
0C;	-ra,	0e;	-ra,	0G;	-na	0c;	-na
=171.	=171	=171.	=171	=171.	=171	=171.	=171
0r	.	0r	.	0r	.	0r	.
=172	=172	=172	=172	=172	=172	=172	=172
0C	et	0e	et	0c	in	0cc	in
=173.	=173	=173.	=173	=173.	=173	=173.	=173
0G	pro	1d	pro	0B	.	1dd	.
.	.	1e	.	.	.	1b	.
=174	=174	=174	=174	=174	=174	=174	=174
[0F	no-	1.f	no-	0c	.	0a	.
.	.	2e\	.	.	.	.	.
=175.	=175	=175.	=175	=175.	=175	=175.	=175
0F]	.	2d\	.	1r	.	0a	ex-
.	.	2c\	.	.	.	.	.
.	.	1c	-bis	1f	ex-	.	.
=176	=176	=176	=176	=176	=176	=176	=176
1E	-bis	1r	.	1g	-cel-	1g	-cel-
1D	sem-	[1d	sem-	1a	.	2f/	.
.	.	.	.	.	.	[2a/	.
=177.	=177	=177.	=177	=177.	=177	=177.	=177
1.F	.	1d]	.	0f	.	2a/]	.
.	.	.	.	.	.	2b\	.
.	.	[1c	.	.	.	2cc\	.
2G\	.	.	.	.	.	2b\	.
=178	=178	=178	=178	=178	=178	=178	=178
1A	.	1c]	.	0e	-sis,	1a	-sis,
1E	.	1Bni	.	.	.	1g	.
=179.	=179	=179.	=179	=179.	=179	=179.	=179
1F	-per	1A	-per	1a	ex-	1r	.
[1G	Chri-	1Bni	.	[1g	-cel-	1dd	ex-
=180	=180	=180	=180	=180	=180	=180	=180
1G]	.	1G	Chri-	1g]	.	1b	-cel-
1C	.	[1c	.	1e	.	1cc	.
=181.	=181	=181.	=181	=181.	=181	=181.	=181
0D	.	1c]	.	0d 0f	.	3%2aV	.
.	.	.	.	.	.	3b\	.
.	.	1Bni	.	.	.	3a/	.
.	.	.	.	.	.	3g/	.
.	.	.	.	.	.	3f/Z	.
=182	=182	=182	=182	=182	=182	=182	=182
[0C	-stum	[0c	-stum	0G 0g	-sis,	1e	-sis,
.	.	.	.	.	.	1r	.
=183.	=183	=183.	=183	=183.	=183	=183.	=183
0C]	.	0c]	.	0e	in	0cc	in
=184	=184	=184	=184	=184	=184	=184	=184
1G	ex-	0r	.	0d	ex-	0dd	ex-
1F	.	.	.	.	.	.	.
=185.	=185	=185.	=185	=185.	=185	=185.	=185
0E	.	0c	ex-	1G	-cel-	0ee	-cel-
.	.	.	.	1c	.	.	.
=186	=186	=186	=186	=186	=186	=186	=186
0D	.	0d	.	1A	.	0ff	.
.	.	.	.	1B	.	.	.
=187.	=187	=187.	=187	=187.	=187	=187.	=187
1C	-o-	0e	.	0c	-sis,	1ee	.
1E	.	.	.	.	.	1cc	.
=188	=188	=188	=188	=188	=188	=188	=188
1D	.	0f	-o-	0r	.	0dd	.
1BB	.	.	.	.	.	.	.
=189.	=189	=189.	=189	=189.	=189	=189.	=189
0C	.	1e	.	0r	.	1cc	.
.	.	1c	.	.	.	[1cc	.
=190	=190	=190	=190	=190	=190	=190	=190
0G	.	0d	.	0r	.	1cc]	.
.	.	.	.	.	.	1b	.
=191.	=191	=191.	=191	=191.	=191	=191.	=191
[0C	-ra,	0c	-ra.	0r	.	0cc	-sis,
=192	=192	=192	=192	=192	=192	=192	=192
0C]	.	0r	.	0c	in	1g	in
.	.	.	.	.	.	1e	ex-
=193.	=193	=193.	=193	=193.	=193	=193.	=193
0BB	es	0r	.	0d	ex-	3g/V	-cel-
.	.	.	.	.	.	3%2fZ	.
.	.	.	.	.	.	3e/V	.
.	.	.	.	.	.	3%2dZ	.
=194	=194	=194	=194	=194	=194	=194	=194
0C	o-	0r	.	0e	-cel-	0c	-sis,
=195.	=195	=195.	=195	=195.	=195	=195.	=195
0D	.	0r	.	0f	.	0r	.
=196	=196	=196	=196	=196	=196	=196	=196
0E	.	0r	.	1e	.	0r	.
.	.	.	.	1c	.	.	.
=197.	=197	=197.	=197	=197.	=197	=197.	=197
0F	.	0r	.	0d	.	0r	.
=198	=198	=198	=198	=198	=198	=198	=198
1E	.	0r	.	1c	.	0r	.
1C	-o-	.	.	[1c	.	.	.
=199.	=199	=199.	=199	=199.	=199	=199.	=199
0D	.	0r	.	1c]	.	0r	.
.	.	.	.	1B	.	.	.
=200	=200	=200	=200	=200	=200	=200	=200
[0C	-ra,	0r	.	[0c	-sis,	1.e	in
.	.	.	.	.	.	2f/	.
=201.	=201	=201.	=201	=201.	=201	=201.	=201
0C]	.	0r	.	0c]	.	2e/	.
.	.	.	.	.	.	2f/	.
.	.	.	.	.	.	[1g	.
=202	=202	=202	=202	=202	=202	=202	=202
0c	in	0e	in	0r	.	1g]	.
.	.	.	.	.	.	1a	.
=203.	=203	=203.	=203	=203.	=203	=203.	=203
0c	ex-	0e	ex-	0g	ex-	1g	.
.	.	.	.	.	.	1cc	ex-
=204	=204	=204	=204	=204	=204	=204	=204
[0G	-cel-	[0d	-cel-	[0g	-cel-	1dd	-cel-
.	.	.	.	.	.	[1b	.
=205.	=205	=205.	=205	=205.	=205	=205.	=205
0G]	.	0d]	.	0g]	.	2b\]	.
.	.	.	.	.	.	2cc\	.
.	.	.	.	.	.	2b\	.
.	.	.	.	.	.	2a/	.
=206	=206	=206	=206	=206	=206	=206	=206
0Cl	-sis.	0cl	-sis.	0gl	-sis.	0ccl	-sis.
==	==	==	==	==	==	==	==
*-	*-	*-	*-	*-	*-	*-	*-
!!!RDF**kern: l=long note in original notation
!!!RDF**kern: i=editorial accidental
!!!RDF**kern: V=start of tuplet marker
!!!RDF**kern: Z=end of tuplet marker
!!!ENC:	Alejandro Planchart
!!!END:	2014/07/19/
!!!EED:	Alejandro Planchart, Jesse Rodin
!!!EEV:	2014/07/26/
!!!ONB:	Translated from SCORE and edited on 2014/07/26/ by Craig Sapp
!!!SMS: Ed. J. Rodin based on edition by A. Planchart
!!muse2ps: T^@{OPR}^u^@{ONM}{. }@{OTL}^C^@{COM}/@{SMS}^i2I150v85,85,85,130c160
